_inc/images/systems/logos/scummvm.svg

<svg viewBox="0 0 264 68" xmlns="http://www.w3.org/2000/svg">
    <path d="m262.539 24.974-6.638-.026h-.286l-.074.277-2.238 8.102-.013.049v.052l-.033 11.698h-4.744l1.103-12.829c.058-.69-.176-.763-.52-.165L230.646 64.2c-.342.601-1.188 1.029-1.874.956l-5.319-.567c-.687-.073-1.405-.676-1.598-1.34l-3.832-13.185h2.385V35.918h5.183l3.272 12.158c.179.666.596.717.929.112l17.254-31.582h7.303l.088-.259 3.171-9.535 5.249.457a1.258 1.258 0 0 1 1.138 1.362l-1.456 16.343Zm-2.97 33.399h-3.452l-.102.21-.623 1.265-2.498.331-.303.039-.022.308-.486 6.911-4.189-.435a1.29 1.29 0 0 1-1.14-1.384l1.694-19.738h5.559l.001-.377.032-12.024 2.144-7.774 6.286.025-2.901 32.643Zm-2.116 9.62-4.621-.478.467-6.63 2.393-.315.198-.027.089-.18.61-1.234h2.914l-.689 7.743a1.239 1.239 0 0 1-1.361 1.121ZM211.249 26.75c-.195-.663-.429-.646-.525.039l-2.802 20.195h-5.167l-1.737-.946-.083-.047-.094-.001-3.221-.019 3.904-26.291h5.405l.083-.262 1.481-4.669h11.399l5.492 20.416h-5.733V49.31h-1.852l-6.55-22.56Zm-6.755 35.848-7.977-.699a1.17 1.17 0 0 1-1.066-1.353l1.2-8.069 10.339 1.234-1.075 7.752a1.337 1.337 0 0 1-1.421 1.135Zm-3.751-15.853 1.737.946.085.047h5.254l-.726 5.224-10.332-1.231.746-5.008 3.236.022Zm4.753-45.24 9.89.997c.688.07 1.396.673 1.575 1.341l2.731 10.15h-11.746l-.084.263-1.481 4.67h-4.742l2.424-16.303c.1-.684.746-1.187 1.433-1.118Zm46.533 5.977c.332-.608 1.166-1.056 1.853-.995l2.955.257-3.029 9.107h-6.35l4.571-8.369Zm-49.587-6.466-4.045 23.947h-4.576v2.382l-.99.97-.112.11-.001.158-.024 7.951-.001.378h3.685l-1.374 8.13-2.851 2.245-2.664-.022h-.129l-.102.078-2.136 1.64-.148.112v3.522l-7.476 2.766-8.343-14.087 9.223-7.712 4.454 7.939c.339.603.692.535.785-.149l3.526-25.665h3.684l.106-.088 1.409-1.185.135-.112V8.216l.899-.961.102-.108V5.072l.873-.775.126-.112V1.023l4.944-.998c.676-.138 1.135.31 1.021.991Zm-8.97 27.726.99-.971.113-.111v-1.943h3.695l-1.762 10.44h-3.057l.021-7.415Zm-1.125 32.055c-.114.682-.763 1.346-1.441 1.473l-5.355 1.015c-.676.127-1.522-.254-1.875-.848l-3.785-6.396 7.592-2.808.245-.091v-3.674l1.885-1.446 2.665.021.133.001.104-.081 2.305-1.816-2.473 14.65ZM153.576 9.276l10.573-2.191c.673-.14 1.504.239 1.843.841l2.217 3.954h-2.502l-.115.155-.665.909h-3.925v5.021h-3.662l-4.356-7.354c-.351-.595-.086-1.196.592-1.335Zm7.805 9.443h.378v-5.022h3.553l.113-.154.664-.91h2.544l11.373 20.282-9.237 7.722-12.982-21.918h3.594Zm29.457-15.347c.094-.684.725-1.356 1.4-1.494l3.486-.704v2.67l-.874.774-.127.114v2.115l-.899.961-.101.11v6.053l-1.17.982h-3.308l1.593-11.581Z" style="fill:#fff"/>
    <path d="M28.279 42.866c.771 1.527 1.158 3.344 1.158 5.453 0 2.035-.424 3.796-1.271 5.284a11.27 11.27 0 0 1-3.306 3.672c-1.355.961-2.891 1.676-4.604 2.148a19.445 19.445 0 0 1-5.17.706c-3.466 0-6.375-.64-8.731-1.921-2.353-1.279-4.472-3.22-6.355-5.82l4.014-5.078c.371-.469 1.003-.487 1.4-.042 0 0 .462.516 1.252 1.137a15.692 15.692 0 0 0 2.572 1.639c.921.471 1.864.857 2.825 1.16.961.299 1.854.452 2.683.452.828 0 1.461-.153 1.893-.452.433-.303.651-.867.651-1.696 0-.717-.388-1.394-1.159-2.035-.772-.639-1.733-1.309-2.881-2.006-1.15-.694-2.394-1.449-3.731-2.26a21.72 21.72 0 0 1-3.727-2.854 15.191 15.191 0 0 1-2.883-3.757c-.772-1.413-1.158-3.042-1.158-4.887 0-1.81.34-3.391 1.017-4.747a10.129 10.129 0 0 1 2.741-3.42c1.147-.921 2.476-1.619 3.984-2.091 1.505-.469 3.106-.705 4.802-.705 3.013 0 5.715.556 8.108 1.666 2.392 1.111 4.661 2.76 6.809 4.944l-3.251 5.018c-.325.504-.962.594-1.415.2 0 0-.816-.708-1.72-1.293a24.06 24.06 0 0 0-2.655-1.496 14.743 14.743 0 0 0-2.43-.932c-.754-.208-1.412-.312-1.978-.312-.677 0-1.177.17-1.496.51-.323.339-.481.772-.481 1.299 0 .678.385 1.308 1.158 1.892.771.585 1.741 1.188 2.91 1.81 1.167.622 2.42 1.318 3.758 2.089a20.6 20.6 0 0 1 3.757 2.798c1.167 1.094 2.137 2.403 2.91 3.927Zm13.813-2.187a4.46 4.46 0 0 1 1.463-1.069c.543-.242 1.078-.366 1.605-.366 1.576 0 2.747.396 3.518 1.183.768.789 1.117 1.593 1.117 1.593.237.548.903.878 1.481.735l6.83-1.709c-.713-3.113-2.159-5.629-4.335-7.543-2.176-1.914-5.104-2.871-8.781-2.871-2.252 0-4.259.348-6.024 1.042-1.764.695-3.245 1.688-4.446 2.984-1.201 1.295-2.111 2.853-2.73 4.672-.62 1.822-.929 3.856-.929 6.107 0 1.953.281 3.811.844 5.575.563 1.765 1.436 3.312 2.619 4.644 1.18 1.332 2.671 2.393 4.474 3.181 1.801.787 3.959 1.181 6.472 1.181 1.426 0 2.815-.218 4.166-.647a11.8 11.8 0 0 0 3.716-1.971c1.126-.882 2.11-1.997 2.955-3.35.844-1.351 1.57-3.745 1.57-3.745a1.07 1.07 0 0 0-.726-1.339l-6.614-1.897a3.79 3.79 0 0 1-.731 1.632 6.75 6.75 0 0 1-1.267 1.266c-.47.358-.948.641-1.436.847-.488.206-.938.308-1.351.308-1.463 0-2.655-.563-3.573-1.688-.921-1.128-1.38-2.607-1.38-4.449 0-.974.14-1.819.422-2.534.282-.709.638-1.3 1.071-1.772Zm46.446 4.771c-.095-2.335-.188-4.714-.283-7.142-.093-2.427-.221-6.73-.221-6.73a1.103 1.103 0 0 0-1.119-1.065l-9.245.201c.113 1.808.217 3.37.311 4.687.093 1.318.17 2.579.225 3.782.057 1.205.095 2.448.115 3.726.016 1.281.028 2.787.028 4.518 0 1.318-.433 2.361-1.299 3.132-.865.773-1.899 1.157-3.104 1.157-1.279 0-2.24-.386-2.88-1.157-.641-.771-.959-1.702-.959-2.793 0-1.954.089-3.786.281-5.702.188-1.881.376-3.612.566-5.195.226-1.807.611-4.119.611-4.119.097-.591-.31-1.071-.908-1.063l-9.64.101c-.265 1.882-.49 3.764-.678 5.646a119.698 119.698 0 0 0-.479 5.138 66.707 66.707 0 0 0-.197 4.855c0 2.033.245 3.864.734 5.494.488 1.629 1.242 3.015 2.258 4.155 1.015 1.139 2.324 2.018 3.923 2.635 1.6.615 3.51.926 5.731.926.639 0 1.297-.086 1.976-.256a10.09 10.09 0 0 0 1.948-.705 10.725 10.725 0 0 0 1.721-1.044c.236-.177.652-.74.993-.622.442.156.193 1.15.193 1.48 0 .598.488 1.077 1.086 1.064l8.849-.198a642.592 642.592 0 0 0-.254-7.778l-.283-7.128Zm39.599-9.499c-.863-1.331-2.045-2.372-3.545-3.124-1.502-.75-3.453-1.125-5.855-1.125-1.802 0-3.349.393-4.645 1.181-.344.21-.682.434-1.005.675a9.363 9.363 0 0 0-.838.698c-.196.185-.366.469-.652.52-.072.012-.148.031-.225.023-.26-.024-.333-.199-.467-.394a5.535 5.535 0 0 0-1.4-1.381c-.94-.655-2.12-.986-3.546-.986-.713 0-1.389.114-2.027.339-.64.224-1.21.517-1.716.872-.429.301-.798.665-1.207.988-.201.159-.28.377-.563.36-.289-.019-.249-.391-.268-.589-.026-.237-.052-.473-.074-.709l-.055-.518a1.196 1.196 0 0 0-1.196-1.054l-8.092.2c.113 2.289.198 4.484.255 6.587.056 2.101.093 4.23.112 6.387a432.9 432.9 0 0 1 0 6.84c-.019 2.401-.026 6.851-.026 6.851a1.066 1.066 0 0 0 1.081 1.069l7.853-.134a1.139 1.139 0 0 0 1.105-1.103l.317-15.465c0-.527.131-1.06.393-1.604.261-.545.881-.817 1.857-.817.451 0 .808.167 1.071.507.26.338.477.788.646 1.351.17.562.282 1.21.339 1.941.055.731.083 1.491.083 2.279v4.785c0 1.238-.01 2.317-.028 3.236a102.49 102.49 0 0 1-.084 2.59c-.038.808-.072 1.703-.072 1.703a1.071 1.071 0 0 0 1.042 1.11l9.219.199a32.28 32.28 0 0 1-.197-2.082 54.023 54.023 0 0 1-.113-2.534c-.018-.861-.037-1.688-.056-2.476a77.237 77.237 0 0 1-.028-1.915c0-3.601.149-6.283.451-8.049.3-1.764 1.087-2.647 2.363-2.647.788 0 1.398.329 1.831.987.43.656.647 1.754.647 3.292 0 1.465-.179 3.332-.536 5.602-.356 2.271-1.476 7.189-1.476 7.189a.968.968 0 0 0 .836 1.194l9.282 1.159c.411-2.326.759-4.577 1.041-6.756a49.64 49.64 0 0 0 .423-6.362c0-2.213-.16-4.249-.478-6.108-.321-1.854-.914-3.45-1.777-4.782Zm42.864 4.785c-.319-1.857-.909-3.453-1.771-4.785-.863-1.331-2.047-2.372-3.548-3.124-1.502-.75-3.451-1.125-5.853-1.125-1.8 0-3.348.393-4.645 1.181-.331.203-.654.416-.968.645a9.224 9.224 0 0 0-.843.697c-.219.205-.503.7-.853.599-.247-.073-.465-.35-.611-.551a5.451 5.451 0 0 0-1.311-1.247c-.939-.657-2.122-.988-3.546-.988a6.04 6.04 0 0 0-2.027.339 7.04 7.04 0 0 0-1.716.872 6.092 6.092 0 0 0-1.239 1.126 2.812 2.812 0 0 1-.157.184c-.081.084-.207.198-.334.166-.143-.033-.228-.248-.259-.374-.058-.222-.064-.457-.086-.685-.03-.295-.059-.591-.092-.885a1.198 1.198 0 0 0-1.194-1.054l-8.092.2c.111 2.289.197 4.484.253 6.587a367.767 367.767 0 0 1 .113 13.228c-.019 2.402-.027 6.85-.027 6.85a1.064 1.064 0 0 0 1.083 1.069l7.854-.133a1.139 1.139 0 0 0 1.105-1.104l.315-15.463c0-.527.133-1.06.395-1.605.261-.545.881-.817 1.857-.817.45 0 .807.167 1.07.506.26.339.478.788.647 1.351.169.563.279 1.212.337 1.942.057.732.085 1.492.085 2.28v4.785c0 1.236-.01 2.316-.028 3.235-.019.922-.048 1.784-.085 2.591-.037.808-.072 1.701-.072 1.701a1.068 1.068 0 0 0 1.043 1.11h.017l.895.02c.642.012 1.285.028 1.929.042l2.361.051c.742.016 1.485.031 2.226.049.456.01.989.11 1.437.006.378-.087.294-.387.283-.689-.011-.459-.095-.904-.129-1.361a60.094 60.094 0 0 1-.113-2.533 560.42 560.42 0 0 0-.056-2.477 83.264 83.264 0 0 1-.029-1.914c0-3.602.151-6.284.45-8.05.301-1.763 1.088-2.646 2.365-2.646.788 0 1.398.33 1.831.985.43.656.648 1.755.648 3.294 0 1.463-.177 3.331-.536 5.601-.357 2.273-1.476 7.188-1.476 7.188a.965.965 0 0 0 .835 1.194c.255.03.506.063.757.094l3.806.477c.805.1 1.611.186 2.417.28.489.056.972.164 1.46.221.301.032.685.186.928-.083.232-.259.218-.732.272-1.05.082-.483.131-.968.171-1.454.059-.744.155-1.474.259-2.214.09-.621.171-1.243.252-1.866.281-2.176.422-4.297.422-6.361-.002-2.215-.162-4.251-.482-6.108Z" style="fill:#fff"/>
</svg>

<?xml version="1.0" encoding="utf-8"?>
<svg version="1.1" viewBox="0 0 264 68" xmlns="http://www.w3.org/2000/svg">
  <path d="M 262.539 24.974 L 255.901 24.948 L 255.615 24.948 L 255.541 25.225 L 253.303 33.327 L 253.29 33.376 L 253.29 33.428 L 253.257 45.126 L 248.513 45.126 L 249.616 32.297 C 249.674 31.607 249.44 31.534 249.096 32.132 L 230.646 64.2 C 230.304 64.801 229.458 65.229 228.772 65.156 L 223.453 64.589 C 222.766 64.516 222.048 63.913 221.855 63.249 L 218.023 50.064 L 220.031 50.064 L 220.408 50.064 L 220.408 49.685 L 220.408 35.918 L 225.591 35.918 L 228.863 48.076 C 229.042 48.742 229.459 48.793 229.792 48.188 L 247.046 16.606 L 254.079 16.606 L 254.349 16.606 L 254.437 16.347 L 257.608 6.812 L 262.857 7.269 C 263.544 7.33 264.056 7.942 263.995 8.631 L 262.539 24.974 Z M 259.569 58.373 L 256.351 58.373 L 256.117 58.373 L 256.015 58.583 L 255.392 59.848 L 252.894 60.179 L 252.591 60.218 L 252.569 60.526 L 252.083 67.437 L 247.894 67.002 C 247.209 66.93 246.695 66.308 246.754 65.618 L 248.448 45.88 L 253.631 45.88 L 254.007 45.88 L 254.008 45.503 L 254.04 33.479 L 256.184 25.705 L 262.47 25.73 L 259.569 58.373 Z M 257.453 67.993 L 252.832 67.515 L 253.299 60.885 L 255.692 60.57 L 255.89 60.543 L 255.979 60.363 L 256.589 59.129 L 259.503 59.129 L 258.814 66.872 C 258.752 67.559 258.139 68.065 257.453 67.993 Z M 211.249 26.75 C 211.054 26.087 210.82 26.104 210.724 26.789 L 207.922 46.984 L 202.755 46.984 L 201.018 46.038 L 200.935 45.991 L 200.841 45.99 L 197.62 45.971 L 201.524 19.68 L 206.654 19.68 L 206.929 19.68 L 207.012 19.418 L 208.493 14.749 L 219.892 14.749 L 225.384 35.165 L 220.03 35.165 L 219.651 35.165 L 219.651 35.54 L 219.651 49.31 L 217.799 49.31 L 211.249 26.75 Z M 204.494 62.598 L 196.517 61.899 C 195.829 61.839 195.349 61.231 195.451 60.546 L 196.651 52.477 L 206.99 53.711 L 205.915 61.463 C 205.821 62.147 205.182 62.657 204.494 62.598 Z M 200.743 46.745 L 202.48 47.691 L 202.565 47.738 L 202.66 47.738 L 207.819 47.738 L 207.093 52.962 L 196.761 51.731 L 197.507 46.723 L 200.743 46.745 Z M 205.496 1.505 L 215.386 2.502 C 216.074 2.572 216.782 3.175 216.961 3.843 L 219.692 13.993 L 208.222 13.993 L 207.946 13.993 L 207.862 14.256 L 206.381 18.926 L 201.639 18.926 L 204.063 2.623 C 204.163 1.939 204.809 1.436 205.496 1.505 Z M 252.029 7.482 C 252.361 6.874 253.195 6.426 253.882 6.487 L 256.837 6.744 L 253.808 15.851 L 247.458 15.851 L 252.029 7.482 Z" style="fill: rgb(255, 255, 255);"/>
  <path d="M 202.442 1.016 L 198.397 24.963 L 194.199 24.963 L 193.821 24.963 L 193.821 25.34 L 193.821 27.345 L 192.831 28.315 L 192.719 28.425 L 192.718 28.583 L 192.694 36.534 L 192.693 36.912 L 193.07 36.912 L 196.378 36.912 L 195.004 45.042 L 192.153 47.287 L 189.489 47.265 L 189.36 47.265 L 189.258 47.343 L 187.122 48.983 L 186.974 49.095 L 186.974 49.282 L 186.974 52.617 L 179.498 55.383 L 171.155 41.296 L 180.378 33.584 L 184.832 41.523 C 185.171 42.126 185.524 42.058 185.617 41.374 L 189.143 15.709 L 192.691 15.709 L 192.827 15.709 L 192.933 15.621 L 194.342 14.436 L 194.477 14.324 L 194.477 14.147 L 194.477 8.216 L 195.376 7.255 L 195.478 7.147 L 195.478 6.998 L 195.478 5.072 L 196.351 4.297 L 196.477 4.185 L 196.477 4.014 L 196.477 1.023 L 201.421 0.025 C 202.097 -0.113 202.556 0.335 202.442 1.016 Z M 193.472 28.742 L 194.462 27.771 L 194.575 27.66 L 194.575 27.501 L 194.575 25.717 L 198.27 25.717 L 196.508 36.157 L 193.451 36.157 L 193.472 28.742 Z M 192.347 60.797 C 192.233 61.479 191.584 62.143 190.906 62.27 L 185.551 63.285 C 184.875 63.412 184.029 63.031 183.676 62.437 L 179.891 56.041 L 187.483 53.233 L 187.728 53.142 L 187.728 52.879 L 187.728 49.468 L 189.613 48.022 L 192.278 48.043 L 192.411 48.044 L 192.515 47.963 L 194.82 46.147 L 192.347 60.797 Z M 153.576 9.276 L 164.149 7.085 C 164.822 6.945 165.653 7.324 165.992 7.926 L 168.209 11.88 L 165.899 11.88 L 165.707 11.88 L 165.592 12.035 L 164.927 12.944 L 161.38 12.944 L 161.002 12.944 L 161.002 13.322 L 161.002 17.965 L 157.34 17.965 L 152.984 10.611 C 152.633 10.016 152.898 9.415 153.576 9.276 Z M 161.381 18.719 L 161.759 18.719 L 161.759 18.34 L 161.759 13.697 L 165.12 13.697 L 165.312 13.697 L 165.425 13.543 L 166.089 12.633 L 168.633 12.633 L 180.006 32.915 L 170.769 40.637 L 157.787 18.719 L 161.381 18.719 Z M 190.838 3.372 C 190.932 2.688 191.563 2.016 192.238 1.878 L 195.724 1.174 L 195.724 3.844 L 194.85 4.618 L 194.723 4.732 L 194.723 4.902 L 194.723 6.847 L 193.824 7.808 L 193.723 7.918 L 193.723 8.067 L 193.723 13.971 L 192.553 14.953 L 189.245 14.953 L 190.838 3.372 Z" style="fill: rgb(255, 255, 255);"/>
  <path d="M 28.279 42.866 C 29.05 44.393 29.437 46.21 29.437 48.319 C 29.437 50.354 29.013 52.115 28.166 53.603 C 27.319 55.09 26.217 56.314 24.86 57.275 C 23.505 58.236 21.969 58.951 20.256 59.423 C 18.541 59.894 16.817 60.129 15.086 60.129 C 11.62 60.129 8.711 59.489 6.355 58.208 C 4.002 56.929 1.883 54.988 0 52.388 L 4.014 47.31 C 4.385 46.841 5.017 46.823 5.414 47.268 C 5.414 47.268 5.876 47.784 6.666 48.405 C 7.459 49.028 8.315 49.573 9.238 50.044 C 10.159 50.515 11.102 50.901 12.063 51.204 C 13.024 51.503 13.917 51.656 14.746 51.656 C 15.574 51.656 16.207 51.503 16.639 51.204 C 17.072 50.901 17.29 50.337 17.29 49.508 C 17.29 48.791 16.902 48.114 16.131 47.473 C 15.359 46.834 14.398 46.164 13.25 45.467 C 12.1 44.773 10.856 44.018 9.519 43.207 C 8.183 42.398 6.941 41.446 5.792 40.353 C 4.642 39.262 3.682 38.009 2.909 36.596 C 2.137 35.183 1.751 33.554 1.751 31.709 C 1.751 29.899 2.091 28.318 2.768 26.962 C 3.446 25.604 4.359 24.466 5.509 23.542 C 6.656 22.621 7.985 21.923 9.493 21.451 C 10.998 20.982 12.599 20.746 14.295 20.746 C 17.308 20.746 20.01 21.302 22.403 22.412 C 24.795 23.523 27.064 25.172 29.212 27.356 L 25.961 32.374 C 25.636 32.878 24.999 32.968 24.546 32.574 C 24.546 32.574 23.73 31.866 22.826 31.281 C 21.924 30.698 21.037 30.2 20.171 29.785 C 19.304 29.37 18.493 29.06 17.741 28.853 C 16.987 28.645 16.329 28.541 15.763 28.541 C 15.086 28.541 14.586 28.711 14.267 29.051 C 13.944 29.39 13.786 29.823 13.786 30.35 C 13.786 31.028 14.171 31.658 14.944 32.242 C 15.715 32.827 16.685 33.43 17.854 34.052 C 19.021 34.674 20.274 35.37 21.612 36.141 C 22.948 36.914 24.201 37.847 25.369 38.939 C 26.536 40.033 27.506 41.342 28.279 42.866 Z M 42.092 40.679 C 42.522 40.211 43.01 39.855 43.555 39.61 C 44.098 39.368 44.633 39.244 45.16 39.244 C 46.736 39.244 47.907 39.64 48.678 40.427 C 49.446 41.216 49.795 42.02 49.795 42.02 C 50.032 42.568 50.698 42.898 51.276 42.755 L 58.106 41.046 C 57.393 37.933 55.947 35.417 53.771 33.503 C 51.595 31.589 48.667 30.632 44.99 30.632 C 42.738 30.632 40.731 30.98 38.966 31.674 C 37.202 32.369 35.721 33.362 34.52 34.658 C 33.319 35.953 32.409 37.511 31.79 39.33 C 31.17 41.152 30.861 43.186 30.861 45.437 C 30.861 47.39 31.142 49.248 31.705 51.012 C 32.268 52.777 33.141 54.324 34.324 55.656 C 35.504 56.988 36.995 58.049 38.798 58.837 C 40.599 59.624 42.757 60.018 45.27 60.018 C 46.696 60.018 48.085 59.8 49.436 59.371 C 50.787 58.94 52.026 58.282 53.152 57.4 C 54.278 56.518 55.262 55.403 56.107 54.05 C 56.951 52.699 57.677 50.305 57.677 50.305 C 57.851 49.733 57.523 49.132 56.951 48.966 L 50.337 47.069 C 50.224 47.67 49.981 48.213 49.606 48.701 C 49.23 49.189 48.808 49.611 48.339 49.967 C 47.869 50.325 47.391 50.608 46.903 50.814 C 46.415 51.02 45.965 51.122 45.552 51.122 C 44.089 51.122 42.897 50.559 41.979 49.434 C 41.058 48.306 40.599 46.827 40.599 44.985 C 40.599 44.011 40.739 43.166 41.021 42.451 C 41.303 41.742 41.659 41.151 42.092 40.679 Z M 88.538 45.45 C 88.443 43.115 88.35 40.736 88.255 38.308 C 88.162 35.881 88.034 31.578 88.034 31.578 C 88.016 30.98 87.512 30.5 86.915 30.513 L 77.67 30.714 C 77.783 32.522 77.887 34.084 77.981 35.401 C 78.074 36.719 78.151 37.98 78.206 39.183 C 78.263 40.388 78.301 41.631 78.321 42.909 C 78.337 44.19 78.349 45.696 78.349 47.427 C 78.349 48.745 77.916 49.788 77.05 50.559 C 76.185 51.332 75.151 51.716 73.946 51.716 C 72.667 51.716 71.706 51.33 71.066 50.559 C 70.425 49.788 70.107 48.857 70.107 47.766 C 70.107 45.812 70.196 43.98 70.388 42.064 C 70.576 40.183 70.764 38.452 70.954 36.869 C 71.18 35.062 71.565 32.75 71.565 32.75 C 71.662 32.159 71.255 31.679 70.657 31.687 L 61.017 31.788 C 60.752 33.67 60.527 35.552 60.339 37.434 C 60.151 39.053 59.991 40.766 59.86 42.572 C 59.727 44.379 59.663 45.997 59.663 47.427 C 59.663 49.46 59.908 51.291 60.397 52.921 C 60.885 54.55 61.639 55.936 62.655 57.076 C 63.67 58.215 64.979 59.094 66.578 59.711 C 68.178 60.326 70.088 60.637 72.309 60.637 C 72.948 60.637 73.606 60.551 74.285 60.381 C 74.961 60.212 75.61 59.977 76.233 59.676 C 76.852 59.374 77.425 59.027 77.954 58.632 C 78.19 58.455 78.606 57.892 78.947 58.01 C 79.389 58.166 79.14 59.16 79.14 59.49 C 79.14 60.088 79.628 60.567 80.226 60.554 L 89.075 60.356 C 89 57.588 88.916 54.997 88.821 52.578 C 88.724 50.16 88.63 47.784 88.538 45.45 Z M 128.137 35.951 C 127.274 34.62 126.092 33.579 124.592 32.827 C 123.09 32.077 121.139 31.702 118.737 31.702 C 116.935 31.702 115.388 32.095 114.092 32.883 C 113.748 33.093 113.41 33.317 113.087 33.558 C 112.795 33.776 112.512 34.007 112.249 34.256 C 112.053 34.441 111.883 34.725 111.597 34.776 C 111.525 34.788 111.449 34.807 111.372 34.799 C 111.112 34.775 111.039 34.6 110.905 34.405 C 110.53 33.86 110.045 33.402 109.505 33.024 C 108.565 32.369 107.385 32.038 105.959 32.038 C 105.246 32.038 104.57 32.152 103.932 32.377 C 103.292 32.601 102.722 32.894 102.216 33.249 C 101.787 33.55 101.418 33.914 101.009 34.237 C 100.808 34.396 100.729 34.614 100.446 34.597 C 100.157 34.578 100.197 34.206 100.178 34.008 C 100.152 33.771 100.126 33.535 100.104 33.299 C 100.086 33.126 100.067 32.953 100.049 32.781 C 99.988 32.187 99.451 31.713 98.853 31.727 L 90.761 31.927 C 90.874 34.216 90.959 36.411 91.016 38.514 C 91.072 40.615 91.109 42.744 91.128 44.901 C 91.146 47.06 91.146 49.339 91.128 51.741 C 91.109 54.142 91.102 58.592 91.102 58.592 C 91.101 59.189 91.587 59.669 92.183 59.661 L 100.036 59.527 C 100.631 59.517 101.129 59.019 101.141 58.424 L 101.458 42.959 C 101.458 42.432 101.589 41.899 101.851 41.355 C 102.112 40.81 102.732 40.538 103.708 40.538 C 104.159 40.538 104.516 40.705 104.779 41.045 C 105.039 41.383 105.256 41.833 105.425 42.396 C 105.595 42.958 105.707 43.606 105.764 44.337 C 105.819 45.068 105.847 45.828 105.847 46.616 C 105.847 48.568 105.847 50.162 105.847 51.401 C 105.847 52.639 105.837 53.718 105.819 54.637 C 105.8 55.56 105.772 56.422 105.735 57.227 C 105.697 58.035 105.663 58.93 105.663 58.93 C 105.642 59.526 106.109 60.024 106.705 60.04 L 115.924 60.239 C 115.848 59.677 115.783 58.983 115.727 58.157 C 115.671 57.332 115.632 56.487 115.614 55.623 C 115.596 54.762 115.577 53.935 115.558 53.147 C 115.538 52.359 115.53 51.72 115.53 51.232 C 115.53 47.631 115.679 44.949 115.981 43.183 C 116.281 41.419 117.068 40.536 118.344 40.536 C 119.132 40.536 119.742 40.865 120.175 41.523 C 120.605 42.179 120.822 43.277 120.822 44.815 C 120.822 46.28 120.643 48.147 120.286 50.417 C 119.93 52.688 118.81 57.606 118.81 57.606 C 118.678 58.187 119.053 58.722 119.646 58.8 L 128.928 59.959 C 129.339 57.633 129.687 55.382 129.969 53.203 C 130.25 51.029 130.392 48.907 130.392 46.841 C 130.392 44.628 130.232 42.592 129.914 40.733 C 129.593 38.879 129 37.283 128.137 35.951 Z M 171.001 40.736 C 170.682 38.879 170.092 37.283 169.23 35.951 C 168.367 34.62 167.183 33.579 165.682 32.827 C 164.18 32.077 162.231 31.702 159.829 31.702 C 158.029 31.702 156.481 32.095 155.184 32.883 C 154.853 33.086 154.53 33.299 154.216 33.528 C 153.922 33.745 153.639 33.975 153.373 34.225 C 153.154 34.43 152.87 34.925 152.52 34.824 C 152.273 34.751 152.055 34.474 151.909 34.273 C 151.553 33.784 151.093 33.369 150.598 33.026 C 149.659 32.369 148.476 32.038 147.052 32.038 C 146.336 32.038 145.663 32.152 145.025 32.377 C 144.387 32.602 143.814 32.894 143.309 33.249 C 142.801 33.607 142.388 33.982 142.07 34.375 C 142.019 34.439 141.968 34.501 141.913 34.559 C 141.832 34.643 141.706 34.757 141.579 34.725 C 141.436 34.692 141.351 34.477 141.32 34.351 C 141.262 34.129 141.256 33.894 141.234 33.666 C 141.204 33.371 141.175 33.075 141.142 32.781 C 141.08 32.187 140.542 31.713 139.948 31.727 L 131.856 31.927 C 131.967 34.216 132.053 36.411 132.109 38.514 C 132.165 40.615 132.202 42.744 132.222 44.901 C 132.24 47.06 132.24 49.341 132.222 51.742 C 132.203 54.144 132.195 58.592 132.195 58.592 C 132.193 59.189 132.68 59.671 133.278 59.661 L 141.132 59.528 C 141.727 59.517 142.224 59.022 142.237 58.424 L 142.552 42.961 C 142.552 42.434 142.685 41.901 142.947 41.356 C 143.208 40.811 143.828 40.539 144.804 40.539 C 145.254 40.539 145.611 40.706 145.874 41.045 C 146.134 41.384 146.352 41.833 146.521 42.396 C 146.69 42.959 146.8 43.608 146.858 44.338 C 146.915 45.07 146.943 45.83 146.943 46.618 C 146.943 48.571 146.943 50.164 146.943 51.403 C 146.943 52.639 146.933 53.719 146.915 54.638 C 146.896 55.56 146.867 56.422 146.83 57.229 C 146.793 58.037 146.758 58.93 146.758 58.93 C 146.735 59.527 147.203 60.025 147.801 60.04 C 147.807 60.04 147.813 60.04 147.818 60.04 C 148.117 60.046 148.412 60.053 148.713 60.06 C 149.355 60.072 149.998 60.088 150.642 60.102 C 151.428 60.118 152.215 60.135 153.003 60.153 C 153.745 60.169 154.488 60.184 155.229 60.202 C 155.685 60.212 156.218 60.312 156.666 60.208 C 157.044 60.121 156.96 59.821 156.949 59.519 C 156.938 59.06 156.854 58.615 156.82 58.158 C 156.766 57.333 156.727 56.488 156.707 55.625 C 156.689 54.764 156.671 53.936 156.651 53.148 C 156.632 52.36 156.622 51.723 156.622 51.234 C 156.622 47.632 156.773 44.95 157.072 43.184 C 157.373 41.421 158.16 40.538 159.437 40.538 C 160.225 40.538 160.835 40.868 161.268 41.523 C 161.698 42.179 161.916 43.278 161.916 44.817 C 161.916 46.28 161.739 48.148 161.38 50.418 C 161.023 52.691 159.904 57.606 159.904 57.606 C 159.771 58.188 160.146 58.725 160.739 58.8 C 160.994 58.83 161.245 58.863 161.496 58.894 C 162.766 59.054 164.033 59.212 165.302 59.371 C 166.107 59.471 166.913 59.557 167.719 59.651 C 168.208 59.707 168.691 59.815 169.179 59.872 C 169.48 59.904 169.864 60.058 170.107 59.789 C 170.339 59.53 170.325 59.057 170.379 58.739 C 170.461 58.256 170.51 57.771 170.55 57.285 C 170.609 56.541 170.705 55.811 170.809 55.071 C 170.899 54.45 170.98 53.828 171.061 53.205 C 171.342 51.029 171.483 48.908 171.483 46.844 C 171.481 44.629 171.321 42.593 171.001 40.736 Z" style="fill: rgb(255, 255, 255);"/>
</svg>
